packages/ui-icons/src/Service-logos/24/Zvooq_direct_url.svg

<?xml version="1.0" encoding="UTF-8"?>
<svg viewBox="0 0 32 32" version="1.1" xmlns="http://www.w3.org/2000/svg" xmlns:xlink="http://www.w3.org/1999/xlink">
    <!-- Generator: Sketch 49 (51002) - http://www.bohemiancoding.com/sketch -->
    <title>logo/24/zvooq</title>
    <desc>Created with Sketch.</desc>
    <defs>
        <linearGradient x1="1.72254642e-14%" y1="-1.11022302e-14%" x2="100%" y2="100%" id="linearGradient-1">
            <stop stop-color="#404040" offset="0%"></stop>
            <stop stop-color="#333333" offset="100%"></stop>
        </linearGradient>
        <linearGradient x1="9.50000038%" y1="-1.11022302e-14%" x2="90.4999996%" y2="100%" id="linearGradient-2">
            <stop stop-color="#FF9E6B" offset="0%"></stop>
            <stop stop-color="#FE00FF" offset="100%"></stop>
        </linearGradient>
        <linearGradient x1="0%" y1="9.49999981%" x2="100%" y2="90.5000002%" id="linearGradient-3">
            <stop stop-color="#99F7B3" offset="0%"></stop>
            <stop stop-color="#00F2FF" offset="100%"></stop>
        </linearGradient>
        <linearGradient x1="50%" y1="0%" x2="50%" y2="100%" id="linearGradient-4">
            <stop stop-color="#FFFFFF" offset="0%"></stop>
            <stop stop-color="#E5FBFF" offset="100%"></stop>
        </linearGradient>
    </defs>
    <g id="logo/24/zvooq" stroke="none" stroke-width="1" fill="none" fill-rule="evenodd">
        <circle id="Mask" fill="url(#linearGradient-1)" cx="16" cy="16" r="12"></circle>
        <path d="M18.2505816,16.4622641 C17.21606,16.4622641 16.3744728,17.331224 16.3744728,18.3994248 C16.3744728,18.4063691 16.3746845,18.4133134 16.375002,18.4180111 C16.3703453,18.5800794 16.3923587,19.0963084 16.7807673,19.8076933 C17.2898259,20.739867 18.2048615,21.6144436 19.5008974,22.4075265 C19.5260858,22.4258064 19.5547666,22.4401036 19.5858816,22.449601 C19.6138217,22.4580771 19.6425025,22.4622641 19.6710775,22.4622641 C19.7012401,22.4622641 19.7312967,22.4575665 19.7597659,22.4484776 C19.7935268,22.4368357 19.8159635,22.4255001 19.8362835,22.4116114 C21.1323193,21.6185285 22.047355,20.7439519 22.5564137,19.8117782 C22.9448223,19.1003933 22.9668356,18.5841643 22.9621789,18.4219939 C22.9623906,18.4173984 22.9627081,18.410454 22.9627081,18.4035097 C22.9627081,17.3353089 22.121015,16.4663491 21.0864935,16.4663491 C20.5304448,16.4663491 19.8362835,16.7731249 19.6706542,17.4704169 C19.5008974,16.76904 18.8067361,16.4622641 18.2505816,16.4622641 Z" id="Like" fill="url(#linearGradient-2)" fill-rule="nonzero"></path>
        <path d="M17.1301541,8.50018364 C17.0428458,8.45048683 16.9345753,8.44957774 16.8464286,8.49796142 C16.7582819,8.5463451 16.7038846,8.63654682 16.7038846,8.73432428 L16.7038846,14.8568293 C16.7038846,14.9545058 16.7582819,15.0448085 16.8464286,15.0931922 C16.8898207,15.1170305 16.9380341,15.1289496 16.9862475,15.1289496 C17.0360331,15.1289496 17.0858187,15.1162224 17.1301541,15.09097 L22.49484,12.029768 C22.5806808,11.9806772 22.6332963,11.8916876 22.6332963,11.7955263 C22.6332963,11.699466 22.5806808,11.6103754 22.49484,11.5613857 L17.1301541,8.50018364 Z" id="Play" fill="url(#linearGradient-3)" fill-rule="nonzero"></path>
        <path d="M14.727414,8.8156281 C14.727414,8.68474416 14.6564693,8.56448985 14.5429155,8.50285951 C14.2359819,8.33611402 13.7391787,8.70750659 13.7391787,9.1704857 L13.7391787,18.2984585 C11.9062469,17.3995575 9.78623751,18.7796905 9.78623751,20.6456724 C9.78623751,21.6329388 10.4267486,22.4622641 11.883811,22.4622641 C13.3241681,22.4622641 14.7192728,21.1371046 14.727414,18.8662307 L14.727414,8.8156281 Z" id="Note" fill="url(#linearGradient-4)" fill-rule="nonzero"></path>
    </g>
</svg>

<svg viewBox="0 0 32 32" xmlns="http://www.w3.org/2000/svg"><defs><linearGradient x1="0%" y1="0%" x2="100%" y2="100%" id="a"><stop stop-color="#404040" offset="0%"/><stop stop-color="#333" offset="100%"/></linearGradient><linearGradient x1="9.5%" y1="0%" x2="90.5%" y2="100%" id="b"><stop stop-color="#FF9E6B" offset="0%"/><stop stop-color="#FE00FF" offset="100%"/></linearGradient><linearGradient x1="0%" y1="9.5%" x2="100%" y2="90.5%" id="c"><stop stop-color="#99F7B3" offset="0%"/><stop stop-color="#00F2FF" offset="100%"/></linearGradient><linearGradient x1="50%" y1="0%" x2="50%" y2="100%" id="d"><stop stop-color="#FFF" offset="0%"/><stop stop-color="#E5FBFF" offset="100%"/></linearGradient></defs><g fill="none" fill-rule="evenodd"><circle fill="url(#a)" cx="16" cy="16" r="12"/><path d="M18.25 16.462c-1.034 0-1.876.87-1.876 1.937a.3.3 0 0 0 .001.019c-.005.162.017.678.406 1.39.509.932 1.424 1.806 2.72 2.6a.287.287 0 0 0 .259.04.305.305 0 0 0 .076-.036c1.296-.793 2.211-1.668 2.72-2.6.389-.712.41-1.228.406-1.39v-.018c0-1.069-.841-1.938-1.876-1.938-.556 0-1.25.307-1.415 1.004-.17-.701-.864-1.008-1.42-1.008Z" fill="url(#b)" fill-rule="nonzero"/><path d="M17.13 8.5a.292.292 0 0 0-.284-.002.27.27 0 0 0-.142.236v6.123a.27.27 0 0 0 .142.236.29.29 0 0 0 .284-.002l5.365-3.061a.27.27 0 0 0 .138-.234.27.27 0 0 0-.138-.235l-5.365-3.06Z" fill="url(#c)" fill-rule="nonzero"/><path d="M14.727 8.816c0-.131-.07-.252-.184-.313-.307-.167-.804.205-.804.667v9.128c-1.833-.898-3.953.482-3.953 2.348 0 .987.64 1.816 2.098 1.816 1.44 0 2.835-1.325 2.843-3.596V8.816Z" fill="url(#d)" fill-rule="nonzero"/></g></svg>
